X: 34077
T: Reel De Moosonee
R: reel
M: 4/4
K: Gmajor
c2|:BdBd gedc|BdAF G2GE|DAFA DAFA|GAB^c d2BA|
BdBd gedc|BdAF G2GE|DAFA DAFA|GBAF G2B2:|
|:BdBd gfed|BdBd gfed|dgfe (3ddd ef|gfge (3ddd BA|
BdBd gfed|BdBd gfed|dgfe (3ddd ef|1 g2gf g2 Bd:|2 g2gf g2c2||

